X: 6
T: The Rollicking Boys Of Tandragee
R: jig
M: 6/8
L: 1/8
K: Emin
d|:B3 E/F/GE|BAB d2B|ABA D3|AFD FGA
BAB E3|BAB def|edB AF/G/A|BEE E2A:||
|:B2e efe|def afd|e2d dB/c/d|Bcd fdA|
B2e e3|def afd|edB AF/G/A|BEE E2A:||


Tune 1392	Setting 25258

